X: 16
T: A vous sans aultre
N: Derived from Bus3008-A_vous_sans_aultre.krn
C: Antoine Busnoys
%%abc-version 2.0
%%abcx-abcm2ps-target-version 5.9.1 (29 Sep 2008)
%%abc-creator hum2abc beta
%%abcx-conversion-date 2019/02/16 20:26:06
%%abc-edited-by Jesse Rodin
%%abc-edited-by Chris Gage 02-16-2015
%%abcx-initial-encoding-date 2015/10/29/
%%humdrum-veritas 4195931262
%%humdrum-veritas-data 4178924879
%%linebreak <none>
%%barnumbers 0
L: 1/4
M: 4/2
Q: 1/2=120
V: 1 clef=treble
V: 2 clef=treble
V: 3 clef=treble
K: C
[V:1] z8 | 
[V:2] D6B,2 | 
[V:3] z8 | 
[V:1] z8 | 
[V:2] C4D2F2- | 
[V:3] z8 | 
[V:1] D6B,2 | 
[V:2] FGA4GF | 
[V:3] z8 | 
[V:1] C4D2F2- | 
[V:2] E4z2D2- | 
[V:3] z8 | 
[V:1] FGA4GF | 
[V:2] DEF3DD2 | 
[V:3] D6B,2 | 
[V:1] E4z2D2- | 
[V:2] z2A,2B,3C | 
[V:3] C4D2F2- | 
[V:1] DEF4ED | 
[V:2] D2D3B,CD | 
[V:3] FGA4GF | 
[V:1] ^C3B,D4 | 
[V:2] A,4z2D2 | 
[V:3] E4D2B,2 | 
[V:1] z4D4 | 
[V:2] E2D2F2G2 | 
[V:3] C2D4B,2 | 
[V:1] C2E2F2G2- | 
[V:2] A4B2c2- | 
[V:3] A,2C2D2E2- | 
[V:1] G2E4D2 | 
[V:2] cAA3^GG^F | 
[V:3] E2C2B,4 | 
[V:1] E4z2A2- | 
[V:2] A6F2 | 
[V:3] A,4D4 | 
[V:1] A2G2F2ED | 
[V:2] E4z2A2- | 
[V:3] C2B,2D4 | 
[V:1] ^C2C2D2F2 | 
[V:2] A2G2F2ED | 
[V:3] A,4z2A2- | 
[V:1] E2E2D3C | 
[V:2] ^C2C2D2F2 | 
[V:3] A2G2F2ED | 
[V:1] A,4z2D2- | 
[V:2] E2E2D3C | 
[V:3] ^C4D2F2 | 
[V:1] D2C2D2F2 | 
[V:2] A,4z2D2- | 
[V:3] E4D3C | 
[V:1] G2A4F2 | 
[V:2] D2E2F2D2 | 
[V:3] B,2A,2D4 | 
[V:1] E4z4 | 
[V:2] A,3B,C2D2- | 
[V:3] C3DE2F2 | 
[V:1] A4c4 | 
[V:2] D2F2E2A2- | 
[V:3] D3CA,4 | 
[V:1] B4A2A2- | 
[V:2] A2^G2A4 | 
[V:3] E4A,4 | 
[V:1] A2F2G4 | 
[V:2] c4B4 | 
[V:3] z8 | 
[V:1] F2EDC2D2 | 
[V:2] A2A4F2 | 
[V:3] A4c4 | 
[V:1] E4F4 | 
[V:2] G4F2ED | 
[V:3] B4A2A2- | 
[V:1] z4C4 | 
[V:2] C2D2E4 | 
[V:3] A2F2G4 | 
[V:1] D3EF2G2- | 
[V:2] F3GA2_B2 | 
[V:3] F6E2- | 
[V:1] G2E2D4 | 
[V:2] G2c4B2 | 
[V:3] E2C2F4 | 
[V:1] C4B,2A,2 | 
[V:2] c2BAG2A2- | 
[V:3] G4z2c2- | 
[V:1] C3DE2E2- | 
[V:2] A2GFE4 | 
[V:3] cAcBGABc- | 
[V:1] EDB,2A,4- | 
[V:2] z4E4 | 
[V:3] cB/A/^G^FA4 | 
[V:1] A,8 | 
[V:2] F2E4C2 | 
[V:3] z4E4 | 
[V:1] z4E4 | 
[V:2] D2E2A,4 | 
[V:3] F2E4C2 | 
[V:1] F2E4C2 | 
[V:2] z4E4 | 
[V:3] D2E2A,4 | 
[V:1] D2E2A,2G,2 | 
[V:2] F2G2A2B2- | 
[V:3] z2C4D2 | 
[V:1] A,2C2B,4 | 
[V:2] B2A4^G2 | 
[V:3] F2E4D2 | 
[V:1] [M:2/1]A,4z4 | 
[V:2] [M:2/1]A4G2E2 | 
[V:3] [M:2/1]E6C2 | 
[V:1] A4G2E2 | 
[V:2] F3EC4 | 
[V:3] D2F2E4 | 
[V:1] F3EC4 | 
[V:2] D2F2E4 | 
[V:3] A4G2E2 | 
[V:1] D2F2E4 | 
[V:2] D4z2A,2 | 
[V:3] F3EC4 | 
[V:1] D4z2A,2 | 
[V:2] B,2D4C2 | 
[V:3] D2F2E4 | 
[V:1] B,2C2D2E2- | 
[V:2] D2E2F2G2- | 
[V:3] D2G2F2E2 | 
[V:1] E2C2B,4 | 
[V:2] GEA4G2 | 
[V:3] C4z2D2 | 
[V:1] A,2D4^C2 | 
[V:2] F2D2E4 | 
[V:3] C2B,2A,4 | 
[V:1] D8 |]  
[V:2] D8 |]  
[V:3] D8 |]  



